src/images/single-assets/OOE.svg

<svg width="26" height="26" viewBox="0 0 26 26" fill="none" xmlns="http://www.w3.org/2000/svg">
<circle cx="13" cy="13" r="13" fill="#111111"/>
<path fill-rule="evenodd" clip-rule="evenodd" d="M19.3228 13.1275C19.3217 13.1492 19.3213 13.1713 19.3201 13.1928C19.3027 13.2565 19.248 13.3036 19.1796 13.3059C19.1559 13.301 19.1319 13.2956 19.1079 13.2903C18.9449 13.2545 18.7788 13.2156 18.6055 13.1697C16.1573 12.5229 14.7402 12.9028 14.2595 13.0869C14.2556 13.0886 14.2513 13.0896 14.2476 13.0914C14.1575 13.1312 14.0899 13.2123 14.0701 13.311V13.4339V14.7V14.8227C14.0983 14.963 14.2224 15.0687 14.3709 15.0687C14.3914 15.0687 14.4115 15.0664 14.4305 15.0625C14.4344 15.0615 14.4377 15.0605 14.4416 15.0596C15.1652 14.8702 16.8479 14.5616 18.6055 15.1711L18.6725 15.1938L18.6842 15.1977C18.6873 15.1987 18.6907 15.1997 18.694 15.2008C18.7456 15.2255 18.7819 15.2774 18.7819 15.3384C18.7819 15.3482 18.7782 15.3566 18.7765 15.3658C18.7645 15.3918 18.752 15.4174 18.7395 15.4433C17.7527 17.5169 15.6416 18.952 13.1921 18.952C9.7988 18.952 7.04783 16.2012 7.04783 12.8078C7.04783 9.41433 9.7988 6.66356 13.1921 6.66356C15.591 6.66356 17.6665 8.03966 18.6784 10.0445C18.6901 10.0603 18.6985 10.0777 18.7036 10.0974C18.7067 10.1099 18.7112 10.1217 18.7112 10.1355C18.7112 10.2202 18.6426 10.2891 18.5576 10.2891C18.5435 10.2891 18.5308 10.2844 18.5177 10.2809C18.5105 10.2788 18.5027 10.2786 18.4958 10.2753C16.178 9.68488 14.8031 10.0204 14.296 10.2055C14.2716 10.2145 14.2509 10.2225 14.2308 10.2307C14.1493 10.2729 14.0885 10.3489 14.0701 10.4412V10.5639V11.8405V11.9632C14.0983 12.1035 14.2224 12.2091 14.3709 12.2091C14.3754 12.2091 14.3795 12.2079 14.384 12.2077C14.4221 12.1973 14.4635 12.1864 14.5079 12.1755C15.2641 11.9857 16.8991 11.7121 18.6055 12.3038L18.6842 12.3304C18.8667 12.3908 19.0477 12.4397 19.2273 12.4817C19.2329 12.4834 19.2388 12.4836 19.2441 12.4858C19.2908 12.5063 19.3228 12.5501 19.3314 12.602C19.332 12.6165 19.3322 12.631 19.3326 12.6456C19.334 12.6996 19.3363 12.7535 19.3363 12.8078C19.3363 12.9155 19.3283 13.0212 19.3228 13.1275M22.82 10.4418C22.7995 10.4418 22.7793 10.4439 22.7596 10.4478C22.7402 10.4539 22.7207 10.4601 22.6994 10.4664C22.386 10.5584 21.8966 10.6555 21.2264 10.6626C21.2182 10.6628 21.21 10.6628 21.2016 10.663C21.1457 10.6583 21.099 10.6256 21.0759 10.5776C21.0712 10.5678 21.0691 10.5571 21.0669 10.5463C20.0357 6.95069 16.6107 4.36684 12.6263 4.63452C8.58425 4.90609 5.30917 8.16684 5.02142 12.2077C4.6798 17.0035 8.46936 21.0001 13.1922 21.0001C16.7229 21.0001 19.7303 18.7663 20.8819 15.6354C20.885 15.6257 20.8879 15.6165 20.8924 15.6077C20.9161 15.5624 20.961 15.5311 21.0149 15.5266C21.0218 15.5264 21.0288 15.526 21.0359 15.5258C21.8611 15.5016 22.5251 15.3496 22.869 15.2522C22.8979 15.244 22.9235 15.2364 22.9478 15.2292C23.0492 15.1833 23.1207 15.0842 23.1276 14.9673V14.9298V13.6731V13.566C23.1023 13.42 22.9757 13.3085 22.8223 13.3085C22.8018 13.3085 22.7821 13.311 22.7629 13.3145C22.7457 13.3198 22.726 13.3255 22.7074 13.3311C22.4442 13.4093 22.0551 13.4918 21.5351 13.5207C21.5248 13.5213 21.5142 13.5217 21.5039 13.5222C21.4265 13.5158 21.3659 13.4539 21.3634 13.3755C21.3636 13.371 21.3641 13.3665 21.3643 13.362C21.3763 13.1787 21.3845 12.9944 21.3845 12.8078C21.3845 12.8023 21.3843 12.7967 21.3843 12.791C21.3843 12.7822 21.3841 12.7738 21.3841 12.765C21.3894 12.7007 21.4337 12.6493 21.4941 12.6321C21.5132 12.6304 21.5324 12.6288 21.5512 12.6271C22.1288 12.5714 22.5898 12.4635 22.8602 12.3873C22.8956 12.3773 22.9271 12.3681 22.9558 12.3595C23.0508 12.3134 23.1176 12.2204 23.1276 12.1104V12.0549V10.7572V10.7427C23.124 10.576 22.988 10.4418 22.82 10.4418" fill="white"/>
</svg>

<svg xmlns="http://www.w3.org/2000/svg" width="26" height="26" fill="none"><circle cx="13" cy="13" r="13" fill="#111"/><path fill="#fff" fill-rule="evenodd" d="m19.323 13.128-.003.065a.15.15 0 0 1-.14.113l-.072-.016q-.244-.052-.503-.12c-2.448-.647-3.865-.267-4.346-.083l-.011.004a.3.3 0 0 0-.178.22v1.512a.307.307 0 0 0 .36.24l.012-.003c.723-.19 2.406-.498 4.163.111l.067.023.012.004.01.003a.15.15 0 0 1 .088.137q-.002.015-.006.028-.017.038-.037.077a6.14 6.14 0 0 1-5.547 3.509 6.144 6.144 0 1 1 5.512-8.855q.006.019.007.039a.154.154 0 0 1-.153.153q-.02-.002-.04-.008-.012-.002-.022-.006c-2.318-.59-3.693-.255-4.2-.07l-.065.026a.3.3 0 0 0-.16.21v1.522c.027.14.151.246.3.246l.013-.001.124-.033c.756-.19 2.391-.463 4.098.129l.078.026q.274.09.543.152l.017.004c.047.02.079.064.087.116l.002.044q.002.08.003.162c0 .107-.008.213-.013.32m3.497-2.686a.3.3 0 0 0-.06.006l-.06.018c-.314.092-.803.19-1.474.197h-.024a.15.15 0 0 1-.126-.085q-.006-.014-.01-.032a8.195 8.195 0 0 0-8.44-5.911c-4.042.271-7.317 3.532-7.605 7.573a8.193 8.193 0 0 0 15.86 3.427l.011-.027a.15.15 0 0 1 .123-.081l.02-.001a7.7 7.7 0 0 0 1.834-.274l.079-.023a.31.31 0 0 0 .18-.262v-1.401a.31.31 0 0 0-.365-.252l-.056.017c-.263.078-.652.16-1.172.19l-.031.001a.15.15 0 0 1-.14-.146v-.014q.019-.275.02-.554v-.043a.15.15 0 0 1 .11-.133l.057-.005a7.6 7.6 0 0 0 1.405-.268.31.31 0 0 0 .172-.249v-1.367a.31.31 0 0 0-.308-.301" clip-rule="evenodd"/></svg>
